X:1
T:Ego pro te rogavi - Clemens non Papa
T:#
%%score [ 1 2 3 4 ]
L:1/8
Q:1/4=200
M:none
K:F
V:1 treble nm="Soprano" snm="S"
V:2 treble nm="Alto" snm="A"
V:3 treble-8 nm="Tenor" snm="T"
V:4 bass nm="Bass" snm="B"
V:1
"^Ego pro te rogavi""^Jacobus Clemens non Papa\n(1500-1558)" A16 | G8 (B8- | B4 A2 G2) A4 c4 | %3
w: E-|go pro|* * * te ro-|
 B4 A8 (G4 | A6 GF) G8 | z16 | z4 c4 c4 A4 |[M:4/2] B6 A2 G8- | G8 z8 | z16 | z4 c4 c4 A4 | %11
w: ga- vi Pe\-|* * * tre,||ut non de-|fi- ci- at,|||ut non de-|
 B6 A2 G4 F4 | G4 G4 G8 | z4 G4 A4 A4 | A4 B4 c8- | c8 z8 | z16 | z8 z4 c4- | c4 A4 F4 B4 | %19
w: fi- ci- at fi-|des tu- a:|Sed tu a-|li- quan- do|||con\-|* fir- ma fra-|
 A4 G4 A4 c4 | B8 A8 | (G12 A4- | A4 B4) G4 (A4- | A2 G2 F2 E2 D2 C2 F4- | F4 E4) F4 c4- | %25
w: tres tu- os, con-|fir- ma|fra\- *|* * tres tu\-||* * os, con\-|
 c4 A4 F4 B4 | A4 G4 A4 c4 | B8 A8 | (G12 A4- | A4 B4) G4 (A4- | A2 G2 F2 E2 D2 C2 F4- | %31
w: * fir- ma fra-|tres tu- os, con-|fir- ma|fra\- *|* * tres tu\-||
 F4 E4) (F6 G2) | A8 z8 | z4 c8 c4 | d4 e4 f8 | f12 f4 | f4 e4 d4 (c4- | c4 =B4) c8- | c8 z8 | %39
w: * * os. *||Et ti-|bi da- bo|cla- ves|re- gni coe- lo\-|* * rum,||
 z16 | z16 | f12 f4 | f4 e4 d4 (c4- | c4 B4 A4 G4 | A4 B4 G8) | (A6 B2 c8) | z8 z4 c4- | %47
w: ||cla- ves|re- gni coe- lo\-|||rum, * *|cla\-|
 c4 d4 B4 c4 | (A4 B4) (c6 BA | B2 A2 d8 c4- | c4 B8 A2 G2) | A8 z8 | z8 z4 c4 | d4 B4 c8 | %54
w: * ves re- gni|coe\- * lo\- * *|||rum,|cla-|ves re- gni|
 (A4 B4) (A4 G4- | G4[Q:1/4=197] F8[Q:1/4=192] E4) |[Q:1/4=185] F16- |[Q:1/4=175] F16 | %58
w: coe\- * lo\- *||rum.||
[Q:1/4=170] F24 |] x8 | %60
w: ||
V:2
 F16 | E8 D8 | F4 F4 F8 | D4 (F8 E2 D2 | E4 F4) E8 | z8 z4 G4 | G4 E4 F6 E2 |[M:4/2] D4 E8 C4 | %8
w: E-|go pro|te ro- ga-|vi Pe\- * *|* * tre,|ut|non de- fi- ci-|at fi- des|
 D8 C8 | z4 F4 F4 D4 | E6 D2 C4 F4 | E4 (D8 C4- | C4 =B,4) C8 | z4 C4 F4 F4 | F4 G4 F4 E4 | %15
w: tu- a,|ut non de-|fi- ci- at fi-|des tu\- *|* * a:|Sed tu a-|li- quan- do con-|
 F4 C4 (D6 E2 | F4 G8) F4- | F4 E4 F8 | F8 D4 B,4 | _E8 C4 A4 | F4 G4 =E4 F4 | D4 E8 C4 | %22
w: ver- sus, con\- *|* * ver\-|* * sus|con- fir- ma|fra- tres tu-|os, con- fir- ma|fra- tres tu-|
 F4 D4 E4 F4 | (C4 D8) B,4 | C8 C8 | F8 D4 B,4 | _E8 C4 A4 | F4 G4 =E4 F4 | D4 E8 C4 | %29
w: os, con- fir- ma|fra\- * tres|tu- os,|con- fir- ma|fra- tres tu-|os, con- fir- ma|fra- tres tu-|
 F4 D4 E4 F4 | (C4 D8) B,4 | C8 A,8- | A,8 z8 | z4 F8 F4 | B4 G4 F4 B4- | B4 B4 B8 | A4 G4 (F4 E4 | %37
w: os, con- fir- ma|fra\- * tres|tu- os.||Et ti-|bi da- bo cla\-|* ves re-|gni coe- lo\- *|
 D8) C4 A,4- | A,4 A,4 A,4 B,4 | C4 D8 D4 | D8 C4 B,4 | A,4 G,4 z4 D4 | G12 G4 | G8 F4 E4- | %44
w: * rum, et|* ti- bi da-|bo cla- ves|re- gni coe-|lo- rum, et|ti- bi|da- bo, ti\-|
 E2 C2 (F8 E4) | F4 F8 G4 | E4 F4 (D4 E4) | (F4 D6 C2) A,4 | z4 G8 A4 | F4 B4 (G4 F4) | (G8 C8) | %51
w: * bi da\- *|bo cla- ves|re- gni coe\- *|lo\- * * rum,|cla- ves|re- gni coe\- *|lo\- *|
 F16 | z4 G8 A4 | F4 G4 (E4 F4) | (D6 E2 F2 D2 E4 | D8) C8 | A,6 B,2 C4 D4- | D4 C4 (B,4 A,4 | %58
w: rum,|cla- ves|re- gni coe\- *|lo\- * * * *|* rum,|cla- ves re- gni|* coe- lo\- *|
 D8) C16 |] x8 | %60
w: * rum.||
V:3
 c16 | c8 B8 | c12 A4 | B4 c4 d8 | c16 | z4 f4 f4 d4 | e6 d2 c4 d4- |[M:4/2][K:treble-8] d4 B4 c8 | %8
w: E-|go pro|te ro-|ga- vi Pe-|tre,|ut non de-|fi- ci- at fi\-|* des tu-|
 G4 g4 f4 e4 | d4 c8 =B4 | c4 G4 A8 | G4 (g4 e4) c4 | d8 e8- | e8 z8 | z8 z4 G4 | A4 A4 A4 B4 | %16
w: a, ut non de-|fi- ci- at|fi- des tu-|a, fi\- * des|tu- a:||Sed|tu a- li- quan-|
 c4 d8 (c4- | c4 B4) c8- | c8 z8 | z8 z4 f4 | d4 e4 c4 d4 | (B4 G4) c4 A4 | d4 B4 c8 | %23
w: do con- ver\-|* * sus||con-|fir- ma fra- tres|tu\- * os, con-|fir- ma fra-|
 A4 (B6 A2 G2 F2 | G8) F8- | F8 z8 | z8 z4 f4 | d4 e4 c4 d4 | (B4 G4) c4 A4 | d4 B4 c8 | %30
w: tres tu\- * * *|* os,||con-|fir- ma fra- tres|tu\- * os, con-|fir- ma fra-|
 A4 (B6 A2 G2 F2 | G8) F4 c4- | c4 c4 d4 e4 | f8 z8 | z16 | z16 | z16 | z8 z4 c4- | c4 c4 d4 e4 | %39
w: tres tu\- * * *|* os. Et|* ti- bi da-|bo,||||et|* ti- bi da-|
 f8 f8- | f4 f4 f4 e4 | d4 (c8 =B4) | c4 G4 _B4 c4 | d8 c8 | z16 | z8 z4 c4- | c4 d4 B4 c4 | %47
w: bo cla\-|* ves re- gni|coe- lo\- *|rum, re- gni coe-|lo- rum,||cla\-|* ves re- gni|
 (A4 B4) G4 F4 | z8 z4 f4- | f4 g4 e4 f4 | d4 e4 f4 c4- | c4 d4 B4 c4 | A4 B4 c8 | z8 z4 c4 | %54
w: coe\- * lo- rum,|cla\-|* ves re- gni|coe- lo- rum, cla\-|* ves re- gni|coe- lo- rum|cla-|
 d4 B4 c8 | A4 B4 G8 | F6 G2 A4 B4- | B4 A4 (d4 c4 | B8) A16 |] x8 | %60
w: ves re- gni|coe- lo- rum,|cla- ves re- gni|* coe- lo\- *|* rum.||
V:4
 F,16 | C,8 G,8 | F,12 F,4 | G,4 A,4 B,8 | A,8 z4 C4 | C4 A,4 B,6 A,2 | G,4 A,8 F,4 | %7
w: E-|go pro|te ro-|ga- vi Pe-|tre, ut|non de- fi- ci-|at fi- des|
[M:4/2] G,8 C,4 C4- | C4 B,4 (A,6 G,2 | F,2 E,2 D,2 C,2 D,8) | C,8 (F,8 | G,6 A,B, C4) A,4 | %12
w: tu- a, fi\-|* des tu\- *||a, fi\-|* * * * des|
 G,8 C,8- | C,8 z8 | z8 z4 C,4 | F,4 F,4 F,4 G,4 | A,4 (B,6 A,2 G,2 F,2) | G,8 F,8- | F,8 z8 | %19
w: tu- a:||Sed|tu a- li- quan-|do con\- * * *|ver- sus||
 C8 A,4 F,4 | B,4 G,4 (A,4 D,4) | G,4 E,4 C,4 F,4 | (D,4 G,4) C,4 (F,4- | %23
w: con- fir- ma|fra- tres tu\- *|os, con- fir- ma|fra\- * tres, fra\-|
 F,2 E,2 D,2 C,2 B,,4) D,4 | C,8 F,8- | F,8 z8 | C8 A,4 F,4 | B,4 G,4 (A,4 D,4) | G,4 E,4 C,4 F,4 | %29
w: * * * * * tres|tu- os,||con- fir- ma|fra- tres tu\- *|os. con- fir- ma|
 (D,4 G,4) C,4 (F,4- | F,2 E,2 D,2 C,2 B,,4) D,4 | C,4 C,4 z4 F,4- | F,4 F,4 B,4 G,4 | F,16 | z16 | %35
w: fra\- * tres, fra\-|* * * * * tres|tu- os. Et|* ti- bi da-|bo,||
 z16 | z16 | z8 z4 F,4- | F,4 F,4 F,4 G,4 | F,4 B,8 B,4 | B,8 A,4 G,4 | (F,4 E,4 D,8) | %42
w: ||et|* ti- bi da-|bo cla- ves|re- gni coe-|lo\- * *|
 C,8 z4 C,4 | G,4 G,4 (A,4 C4- | C4 B,4 C8) | F,8 z8 | z16 | z8 z4 F,4- | F,4 G,4 E,4 F,4 | %49
w: rum, re-|gni coe- lo\- *||rum,||cla\-|* ves re- gni|
 (B,8 C4 A,4) | G,8 F,8- | F,8 z4 F,4- | F,4 G,4 E,4 F,4 | D,4 _E,4 C,4 F,4- | F,4 G,4 F,4 C,4 | %55
w: coe\- * *|lo- rum,|* cla\-|* ves re- gni|coe- lo- rum, cla\-|* ves re- gni|
 D,4 B,,4 C,8 | z4 F,4 F,4 (B,,2 C,2 | D,2 E,2 F,4) B,,4 F,4 | B,,8 F,16 |] x4 x4 | %60
w: coe- lo- rum,|cla- ves re\- *|* * * gni coe-|lo- rum.||

